icons/calendar-arrow-right.svg

<svg xmlns="http://www.w3.org/2000/svg" width="24" height="24" viewBox="0 0 24 24">
  <path d="M22,10 L22,20 C22,21.6568542 20.6568542,23 19,23 L5,23 C3.34314575,23 2,21.6568542 2,20 L2,10 L22,10 Z M15.7837744,15.3788907 L15.7803112,15.374551 L15.767,15.359 L15.775,15.37 L15.7071068,15.2928932 L12.7071068,12.2928932 L12.6128994,12.2097046 C12.2206082,11.9046797 11.6533772,11.9324093 11.2928932,12.2928932 C10.9023689,12.6834175 10.9023689,13.3165825 11.2928932,13.7071068 L11.2928932,13.7071068 L12.585,15 L9,15 L8.88337887,15.0067277 C8.38604019,15.0644928 8,15.4871642 8,16 C8,16.5522847 8.44771525,17 9,17 L9,17 L12.585,17 L11.2928932,18.2928932 L11.2097046,18.3871006 C10.9046797,18.7793918 10.9324093,19.3466228 11.2928932,19.7071068 C11.6834175,20.0976311 12.3165825,20.0976311 12.7071068,19.7071068 L12.7071068,19.7071068 L15.7071068,16.7071068 L15.7803112,16.625449 C15.7826279,16.6225624 15.7849289,16.6196628 15.7902954,16.6128994 C15.7948255,16.6070733 15.7992821,16.6012086 15.8036865,16.5951593 C15.8215099,16.5711307 15.8382813,16.546275 15.8540045,16.5207088 C15.8613931,16.5086131 15.8685012,16.4963944 15.8751242,16.484277 C15.8862061,16.4642939 15.8966234,16.4438914 15.9063266,16.4232215 L15.9063266,16.4232215 L15.928896,16.3710585 C15.9366843,16.3515792 15.9438775,16.3317977 15.9502619,16.3121425 C15.9552713,16.2968513 15.9599023,16.2814633 15.964279,16.2658396 C15.9701664,16.2444365 15.9753602,16.2227461 15.9797599,16.2007258 C15.9832978,16.1833753 15.9863719,16.165949 15.9889807,16.1489612 L15.9889807,16.1489612 L15.997,16.075 L15.998,16.059 L15.999,16.019 L16,16 C16,15.9935938 15.9999398,15.9872016 15.9998198,15.980824 L15.9998198,15.980824 L15.9982669,15.9409686 C15.9976744,15.9308872 15.99693,15.9208131 15.996002,15.909968 L15.996002,15.909968 L15.9889822,15.8515331 C15.9863719,15.834051 15.9832978,15.8166247 15.9798348,15.7992059 C15.9753602,15.7772539 15.9701664,15.7555635 15.9641549,15.734007 C15.9599023,15.7185367 15.9552713,15.7031487 15.9504533,15.6882636 C15.9438775,15.6682023 15.9366843,15.6484208 15.9287745,15.628664 L15.9287745,15.628664 L15.9063462,15.5769009 C15.8966234,15.5561086 15.8862061,15.5357061 15.8753288,15.5159379 L15.8753288,15.5159379 L15.8539326,15.4793398 C15.8382813,15.453725 15.8215099,15.4288693 15.8036654,15.4046934 L15.8036654,15.4046934 L15.779,15.374 L15.7837744,15.3788907 Z M7,3 L7,4 L7.00672773,4.11662113 C7.06449284,4.61395981 7.48716416,5 8,5 C8.51283584,5 8.93550716,4.61395981 8.99327227,4.11662113 L9,4 L9,3 L15,3 L15,4 L15.0067277,4.11662113 C15.0644928,4.61395981 15.4871642,5 16,5 C16.5128358,5 16.9355072,4.61395981 16.9932723,4.11662113 L17,4 L17,3 L19,3 C20.6568542,3 22,4.34314575 22,6 L22,8 L2,8 L2,6 C2,4.34314575 3.34314575,3 5,3 L7,3 Z M16,1 C16.5128358,1 16.9355072,1.38604019 16.9932723,1.88337887 L17,2 L17,3 L15,3 L15,2 C15,1.44771525 15.4477153,1 16,1 Z M8,1 C8.51283584,1 8.93550716,1.38604019 8.99327227,1.88337887 L9,2 L9,3 L7,3 L7,2 C7,1.44771525 7.44771525,1 8,1 Z"/>
</svg>

<svg xmlns="http://www.w3.org/2000/svg" viewBox="0 0 24 24">
  <path d="M22 10v10a3 3 0 0 1-3 3H5a3 3 0 0 1-3-3V10h20zm-6.22 5.38-.01-.02v.01l-.06-.08-3-3-.1-.08a1 1 0 0 0-1.32 1.5L12.6 15H8.88A1 1 0 0 0 9 17h3.59l-1.3 1.3-.08.09a1 1 0 0 0 1.5 1.32l3-3 .07-.08a3 3 0 0 0 .1-.15l.03-.06.02-.05a.95.95 0 0 0 .06-.22v-.13L16 16v-.09l-.01-.06a1.1 1.1 0 0 0-.06-.22l-.02-.05a1.04 1.04 0 0 0-.03-.06l-.03-.04a1.03 1.03 0 0 0-.05-.08l-.02-.03zM7 3v1.12a1 1 0 0 0 2 0V3h6v1.12a1 1 0 0 0 2 0V3h2a3 3 0 0 1 3 3v2H2V6a3 3 0 0 1 3-3h2zm9-2a1 1 0 0 1 1 .88V3h-2V2a1 1 0 0 1 1-1zM8 1a1 1 0 0 1 1 .88V3H7V2a1 1 0 0 1 1-1z"/>
</svg>
